X:041
T:Arran Boat
M:6/8
L:1/8
K:Em
E>FE B>^cd | A<FD A<FD | E>FE B>^cd | A<FD E3 | 
E>FE B>^cd | A<FD A<FD | E>FE B>^cd | A<FD E3 || 
e>fe g>fe | d<BG A<FD | e>fe g>fe | d<Bd e3 | 
e>fe g>fe | d>BG A>FD | E>FE B>^cd | A>FD E3 || 

